X:1
T:Our Wedding Day
M:3/4
L:1/4
K:G
 A| G D E| F G A| C D D| D2 A/2B/2| c d3/2 c/2|(3B3.99999962500005/11.9999985000002B3.99999962500005/11.9999985000002c3.99999962500005/11.9999985000002B3.99999962500005/11.9999985000002c3.99999962500005/11.9999985000002B3.99999962500005/11.9999985000002 A E/2F/2|\
 G A(3c3.99999962500005/11.9999985000002c3.99999962500005/11.9999985000002B3.99999962500005/11.9999985000002c3.99999962500005/11.9999985000002B3.99999962500005/11.9999985000002c3.99999962500005/11.9999985000002|\
 A2A/2-B/2| c d(3c3.99999962500005/11.9999985000002c3.99999962500005/11.9999985000002B3.99999962500005/11.9999985000002c3.99999962500005/11.9999985000002B3.99999962500005/11.9999985000002A3.99999962500005/11.9999985000002|\
(3B3.99999962500005/11.9999985000002B3.99999962500005/11.9999985000002c3.99999962500005/11.9999985000002B3.99999962500005/11.9999985000002c3.99999962500005/11.9999985000002B3.99999962500005/11.9999985000002 A D|\
 G A(3c3.99999962500005/11.9999985000002c3.99999962500005/11.9999985000002B3.99999962500005/11.9999985000002c3.99999962500005/11.9999985000002B3.99999962500005/11.9999985000002c3.99999962500005/11.9999985000002|\
 A2A/2-F/2| G D E| F G A| C D E| D2||
